assets/svgs/security-color/SecurityColor14.svg

<svg xmlns="http://www.w3.org/2000/svg" data-name="Layer 3" viewBox="0 0 128 128"><path fill="#fbca11" d="M97.235 36.412v-.2c0-5.444-4.839-8.065-4.839-8.065H74.217c-8.033 0-8.436 7.662-8.436 7.662v.6H21.019v50.937h86.095V36.412z"/><path fill="#64c9eb" d="M98.387 79.422v16.64a3.975 3.975 0 01-3.963 3.963H78.177a3.974 3.974 0 01-3.96-3.963v-16.64z"/><circle cx="86.3" cy="87.346" r="2.599" fill="#fdfdfd"/><path fill="#231f20" d="M86.3 82.562a4.773 4.773 0 00-1.613 9.268v3.044a1.613 1.613 0 103.226 0V91.83a4.773 4.773 0 00-1.613-9.268zm0 3.226a1.558 1.558 0 11-1.556 1.556 1.558 1.558 0 011.556-1.556z"/><path fill="#231f20" d="M106.743 34.862h-8.035c-.406-4.76-4.108-8.5-8.6-8.5h-17c-4.491 0-8.191 3.74-8.6 8.5H21.256a1.613 1.613 0 00-1.613 1.613v51.012a1.613 1.613 0 001.613 1.613H72.6v6.962a5.581 5.581 0 005.573 5.576h16.251A5.583 5.583 0 00100 96.062V89.1h6.743a1.613 1.613 0 001.613-1.613V36.475a1.613 1.613 0 00-1.613-1.613zm-40.659 3.226a1.613 1.613 0 001.616-1.613v-.737c0-3.393 2.427-6.15 5.409-6.15h17c2.983 0 5.411 2.757 5.411 6.15a1.683 1.683 0 00.043.369 1.684 1.684 0 00-.043.369 1.612 1.612 0 001.613 1.613h8v16.734H60.906a8.881 8.881 0 00-8.5-7.763H38.63a8.88 8.88 0 00-8.5 7.763h-7.261V38.088zM57.6 54.823H33.433a5.57 5.57 0 015.2-4.537h13.773a5.572 5.572 0 015.194 4.537zm39.17 41.239a2.353 2.353 0 01-2.35 2.35H78.177a2.351 2.351 0 01-2.347-2.35V81.034h20.944zm-4.848-18.254H80.678v-5.223a5.634 5.634 0 0111.244 0zM100 85.874v-6.453a1.613 1.613 0 00-1.613-1.613h-3.239v-5.223a8.855 8.855 0 00-17.7 0v5.223h-3.231a1.612 1.612 0 00-1.617 1.613v6.452H22.869V58.049h82.261v27.825z"/></svg>

<svg id="Layer_3" data-name="Layer 3" xmlns="http://www.w3.org/2000/svg" viewBox="0 0 128 128"><title>Artboard 110</title><path d="M97.235,36.412v-.2c0-5.444-4.839-8.065-4.839-8.065H74.217c-8.033,0-8.436,7.662-8.436,7.662v.6H21.019V87.346h86.095V36.412Z" style="fill:#fbca11"/><path d="M98.387,79.422V96.062a3.975,3.975,0,0,1-3.963,3.963H78.177a3.974,3.974,0,0,1-3.96-3.963V79.422Z" style="fill:#64c9eb"/><circle cx="86.3" cy="87.346" r="2.599" style="fill:#fdfdfd"/><path d="M86.3,82.562a4.773,4.773,0,0,0-1.613,9.268v3.044a1.613,1.613,0,1,0,3.226,0V91.83A4.773,4.773,0,0,0,86.3,82.562Zm0,3.226a1.558,1.558,0,1,1-1.556,1.556A1.558,1.558,0,0,1,86.3,85.788Z" style="fill:#231f20"/><path d="M106.743,34.862H98.708c-.406-4.76-4.108-8.5-8.6-8.5h-17c-4.491,0-8.191,3.74-8.6,8.5H21.256a1.613,1.613,0,0,0-1.613,1.613V87.487A1.613,1.613,0,0,0,21.256,89.1H72.6v6.962a5.581,5.581,0,0,0,5.573,5.576H94.424A5.583,5.583,0,0,0,100,96.062V89.1h6.743a1.613,1.613,0,0,0,1.613-1.613V36.475A1.613,1.613,0,0,0,106.743,34.862ZM66.084,38.088A1.613,1.613,0,0,0,67.7,36.475v-.737c0-3.393,2.427-6.15,5.409-6.15h17c2.983,0,5.411,2.757,5.411,6.15a1.683,1.683,0,0,0,.043.369,1.684,1.684,0,0,0-.043.369,1.612,1.612,0,0,0,1.613,1.613h8V54.823H60.906a8.881,8.881,0,0,0-8.5-7.763H38.63a8.88,8.88,0,0,0-8.5,7.763H22.869V38.088ZM57.6,54.823H33.433a5.57,5.57,0,0,1,5.2-4.537H52.406A5.572,5.572,0,0,1,57.6,54.823Zm39.17,41.239a2.353,2.353,0,0,1-2.35,2.35H78.177a2.351,2.351,0,0,1-2.347-2.35V81.034H96.774ZM91.922,77.808H80.678V72.585a5.634,5.634,0,0,1,11.244,0ZM100,85.874V79.421a1.613,1.613,0,0,0-1.613-1.613H95.148V72.585a8.855,8.855,0,0,0-17.7,0v5.223H74.217A1.612,1.612,0,0,0,72.6,79.421v6.452H22.869V58.049H105.13V85.874Z" style="fill:#231f20"/></svg>
